X: 14617
T: Gan Ainm
R: slide
M: 12/8
K: Cmajor
|:D|E2 E EDC A2 G EGE|DED DCD E2 D C2 D|
EEE EDC A2 G EGE|DED DED C3 C2:|
|:G|cBc c2 B ABA G2 E|DED DCD E2 D C2 G|
cBc c2 B ABA G2 E|DED DED C3 C2:|

